X:164
T:Walls of Liscarroll
Z: id:dc-jig-141
M:6/8
L:1/8
K:E Dorian
e|edB BAF|AFE E2F|AFF dFF|ABc def|!
edB BAF|AFE E2F|AFF dFF|FED E2:|!
B|eBe fdB|eBe fdB|AFF dFF|ABc def|!
[1 eBe fdB|eBe fdB|AFF dFF|FED E2:|!
[2 edB BAF|AFE E2F|AFF dFF|FED E2|]!

